app/assets/images/icons/tooth.svg

<svg width="120" height="120" viewBox="0 0 120 120" fill="none" xmlns="http://www.w3.org/2000/svg">
<path fill-rule="evenodd" clip-rule="evenodd" d="M70.116 3.34791C72.6612 1.95336 80.912 -0.301709 86.4441 0.0335442C91.9762 0.368817 98.8202 2.80341 103.22 7.46759C107.576 12.0844 109.236 16.4676 110.22 25.4676C111.364 35.9225 108.292 50.6977 101.719 61.5639C100.961 62.9848 102.528 60.2263 101.719 61.5639C103.72 73.9676 103.593 86.6413 101.22 97.9676C100.021 103.692 98.9471 107.337 96.3812 111.329C94.715 113.921 90.5723 119.968 83.6551 119.968C80.9298 119.968 78.6642 119.006 76.9337 117.251C75.2988 115.592 73.3148 113.403 72.6612 111.191C71.5672 107.489 71.5036 104.996 71.116 100.536C70.6214 95.1719 69.3403 86.5244 68.2204 82.5234C67.1005 78.5224 64.6008 77.5829 60.4106 77.5829C56.2204 77.5829 54.6736 78.7035 52.7998 82.5234C51.1077 85.9727 50.116 92.6557 49.4491 98.029C48.8972 102.615 48.3093 107.5 46.9743 111.329C46.1974 113.557 45.0767 115.724 43.3204 117.348C41.4837 119.046 39.1471 119.968 36.3626 119.968C31.8719 119.968 27.9263 117.45 25.8416 113.968C23.7576 110.487 20.5581 104.087 19.5865 99.344C17.6326 89.8065 19.2204 82.663 19.2204 75.9676C20.2204 67.4676 17.0723 62.4676 13.7204 51.9676C13.7204 51.9676 10.9524 42.2696 10.2204 33.3396C9.47088 24.1954 10.5634 17.0395 14.5723 10.9676C18.6669 4.76589 26.2127 0.0280283 34.559 0.0280283C43.1857 0.0280283 47.9934 1.81041 51.7359 3.64009C52.382 3.95595 51.1965 3.36551 51.7359 3.64009C51.7359 3.64009 55.7825 5.46757 60.4106 5.46757C65.0387 5.46757 70.116 3.34791 70.116 3.34791ZM96.3812 70.6858C94.6569 72.9977 92.2415 75.503 90.2535 77.5121C88.9712 78.8079 86.8231 78.684 85.6998 77.2482V77.2482C84.7797 76.0723 84.8676 74.4023 85.8412 73.2704C89.3845 69.151 94.0102 62.6411 97.7738 55.5911C102.218 47.2664 104.789 40.9676 103.72 25.4676C102.651 9.96759 90.8318 6.7335 86.4441 6.46759C82.0564 6.20168 76.7724 7.04004 72.9497 8.6502C72.5796 8.84801 73.3318 8.43859 72.9497 8.6502C72.9497 8.6502 66.5852 12.052 60.4106 12.052C54.2361 12.052 49.0954 9.04118 49.0954 9.04118C48.616 8.79323 49.5616 9.26912 49.0954 9.04118C42.9567 6.04004 37.5856 6.33566 34.0723 6.46759C28.5856 6.67362 23.1714 10.998 20.2204 15.4676C17.1837 20.067 16.477 26.1705 17.0723 34.4676C18.2204 50.4676 20.7204 53.9676 20.7204 53.9676C20.7204 53.9676 25.7204 64.9676 25.7204 73.9676C25.7204 80.5293 24.2455 88.5944 26.0774 97.5362C26.9987 102.033 29.5034 107.004 31.0723 109.625C32.6413 112.245 34.8979 112.354 36.3626 112.354C41.0723 112.354 42.0723 105.468 43.4778 97.3179C43.4778 97.3179 45.3659 82.9654 47.5723 78.4676C48.7044 76.1598 49.7053 70.5709 60.4106 70.5709C71.116 70.5709 71.8169 75.1983 73.5723 78.9676C75.6762 83.485 76.5899 93.0878 77.0723 98.3197C77.0723 98.3197 77.0723 113.968 86.4441 112.354C86.4441 112.354 91.2204 112.876 94.7204 98.3197C96.6693 90.2146 98.2204 78.9676 96.3812 70.6858Z" fill="black"/>
<path fill-rule="evenodd" clip-rule="evenodd" d="M74.4621 16.42C76.5011 17.4008 76.9623 19.9738 75.0985 21.2566C72.1962 23.2542 67.4569 25.5823 60.9729 25.7676C54.4335 25.9544 49.7564 23.0566 47.2571 19.9717C45.766 18.1313 47.3059 15.8733 49.6638 15.6487V15.6487C50.802 15.5403 51.9098 16.1852 52.7639 16.9452C54.0208 18.0635 56.4411 19.388 60.8012 19.2634C65.1987 19.2634 68.6633 17.7794 70.6426 16.6672C71.8116 16.0102 73.2537 15.8387 74.4621 16.42V16.42Z" fill="black"/>
</svg>

<svg width="120" height="120" fill="none" xmlns="http://www.w3.org/2000/svg"><path fill-rule="evenodd" clip-rule="evenodd" d="M70.116 3.348C72.661 1.953 80.912-.302 86.444.034c5.532.335 12.376 2.77 16.776 7.434 4.356 4.616 6.016 9 7 18 1.144 10.454-1.928 25.23-8.501 36.096-.758 1.42.809-1.338 0 0 2.001 12.404 1.874 25.077-.499 36.404-1.199 5.724-2.273 9.369-4.839 13.361-1.666 2.592-5.809 8.639-12.726 8.639-2.725 0-4.99-.962-6.721-2.717-1.635-1.659-3.62-3.848-4.273-6.06-1.094-3.702-1.157-6.195-1.545-10.655-.495-5.364-1.776-14.012-2.896-18.013-1.12-4-3.62-4.94-7.81-4.94-4.19 0-5.736 1.12-7.61 4.94-1.692 3.45-2.684 10.133-3.35 15.506-.553 4.586-1.14 9.471-2.476 13.3-.777 2.228-1.897 4.395-3.654 6.019-1.836 1.698-4.173 2.62-6.957 2.62-4.491 0-8.437-2.518-10.521-6-2.084-3.481-5.284-9.881-6.255-14.624-1.954-9.537-.367-16.681-.367-23.376 1-8.5-2.148-13.5-5.5-24 0 0-2.768-9.698-3.5-18.628-.75-9.145.343-16.3 4.352-22.372C18.667 4.766 26.212.028 34.56.028c8.627 0 13.434 1.782 17.177 3.612.646.316-.54-.274 0 0 0 0 4.047 1.828 8.675 1.828 4.628 0 9.705-2.12 9.705-2.12zm26.265 67.338c-1.724 2.312-4.14 4.817-6.127 6.826a3.048 3.048 0 0 1-4.554-.264c-.92-1.176-.832-2.846.141-3.978 3.544-4.119 8.17-10.629 11.933-17.679 4.444-8.325 7.015-14.623 5.946-30.123-1.069-15.5-12.888-18.735-17.276-19-4.388-.266-9.672.572-13.494 2.182-.37.198.382-.211 0 0 0 0-6.365 3.402-12.54 3.402-6.174 0-11.315-3.01-11.315-3.01-.479-.249.467.227 0 0-6.138-3.002-11.51-2.706-15.023-2.574-5.486.206-10.9 4.53-13.852 9-3.036 4.599-3.743 10.703-3.148 19 1.148 16 3.648 19.5 3.648 19.5s5 11 5 20c0 6.561-1.474 14.626.357 23.568.922 4.497 3.426 9.468 4.995 12.089 1.57 2.62 3.826 2.729 5.29 2.729 4.71 0 5.71-6.886 7.116-15.036 0 0 1.888-14.353 4.094-18.85 1.132-2.308 2.133-7.897 12.839-7.897 10.705 0 11.406 4.627 13.161 8.397 2.104 4.517 3.018 14.12 3.5 19.352 0 0 0 15.648 9.372 14.034 0 0 4.776.522 8.276-14.034 1.95-8.105 3.5-19.352 1.661-27.634z" fill="#000"/><path fill-rule="evenodd" clip-rule="evenodd" d="M74.462 16.42c2.04.98 2.5 3.554.636 4.837-2.902 1.997-7.641 4.325-14.125 4.51-6.54.187-11.217-2.71-13.716-5.795-1.491-1.84.049-4.099 2.407-4.323 1.138-.109 2.246.536 3.1 1.296 1.257 1.119 3.677 2.443 8.037 2.318 4.398 0 7.862-1.484 9.842-2.596 1.169-.657 2.61-.828 3.82-.247z" fill="#000"/></svg>
